Numix/16/status/indicator-keyboard-Sv-1.svg

<?xml version="1.0" encoding="UTF-8" standalone="no"?>
<svg
   xmlns:dc="http://purl.org/dc/elements/1.1/"
   xmlns:cc="http://creativecommons.org/ns#"
   xmlns:rdf="http://www.w3.org/1999/02/22-rdf-syntax-ns#"
   xmlns:svg="http://www.w3.org/2000/svg"
   xmlns="http://www.w3.org/2000/svg"
   xmlns:sodipodi="http://sodipodi.sourceforge.net/DTD/sodipodi-0.dtd"
   xmlns:inkscape="http://www.inkscape.org/namespaces/inkscape"
   viewBox="0 0 16 16"
   id="svg2"
   version="1.1"
   inkscape:version="0.91 r13725"
   sodipodi:docname="indicator-keyboard-Sv-1.svg">
  <metadata
     id="metadata14">
    <rdf:RDF>
      <cc:Work
         rdf:about="">
        <dc:format>image/svg+xml</dc:format>
        <dc:type
           rdf:resource="http://purl.org/dc/dcmitype/StillImage" />
      </cc:Work>
    </rdf:RDF>
  </metadata>
  <defs
     id="defs12" />
  <sodipodi:namedview
     pagecolor="#ffffff"
     bordercolor="#666666"
     borderopacity="1"
     objecttolerance="10"
     gridtolerance="10"
     guidetolerance="10"
     inkscape:pageopacity="0"
     inkscape:pageshadow="2"
     inkscape:window-width="640"
     inkscape:window-height="480"
     id="namedview10"
     showgrid="false"
     inkscape:zoom="14.75"
     inkscape:cx="8"
     inkscape:cy="8"
     inkscape:window-x="65"
     inkscape:window-y="24"
     inkscape:window-maximized="0"
     inkscape:current-layer="svg2" />
  <path
     style="fill:#ececec;fill-opacity:1"
     d="M 1.5996094 0 C 0.71320937 2.9605947e-16 0 0.71320937 0 1.5996094 L 0 14.400391 C 2.9605947e-16 15.286791 0.71320937 16 1.5996094 16 L 14.400391 16 C 15.286791 16 16 15.286791 16 14.400391 L 16 1.5996094 C 16 0.71320937 15.286791 0 14.400391 0 L 1.5996094 0 z M 4.859375 4.7246094 C 5.027375 4.7246094 5.1934688 4.7357656 5.3554688 4.7597656 C 5.5174687 4.7837656 5.6666875 4.817375 5.8046875 4.859375 C 5.9486875 4.895375 6.0774063 4.936375 6.1914062 4.984375 C 6.3114062 5.032375 6.4102813 5.0846719 6.4882812 5.1386719 L 6.2734375 5.6503906 C 6.0994375 5.5303906 5.8867656 5.4352813 5.6347656 5.3632812 C 5.3887656 5.2912813 5.1200312 5.2558594 4.8320312 5.2558594 C 4.6340312 5.2558594 4.4512031 5.2763594 4.2832031 5.3183594 C 4.1212031 5.3543594 3.9813281 5.4178125 3.8613281 5.5078125 C 3.7413281 5.5918125 3.6442656 5.6980781 3.5722656 5.8300781 C 3.5062656 5.9620781 3.4746094 6.1225938 3.4746094 6.3085938 C 3.4746094 6.5005938 3.5100312 6.6629219 3.5820312 6.7949219 C 3.6540313 6.9269219 3.7529063 7.0407187 3.8789062 7.1367188 C 4.0109062 7.2327187 4.1638906 7.3184844 4.3378906 7.3964844 C 4.5118906 7.4744844 4.7002969 7.556625 4.9042969 7.640625 C 5.1502969 7.742625 5.3816562 7.8433125 5.5976562 7.9453125 C 5.8196563 8.0473125 6.0118281 8.1686406 6.1738281 8.3066406 C 6.3358281 8.4446406 6.4645469 8.6125469 6.5605469 8.8105469 C 6.6565469 9.0085469 6.7050781 9.2510625 6.7050781 9.5390625 C 6.7050781 10.103063 6.5073281 10.526594 6.1113281 10.808594 C 5.7213281 11.090594 5.1895781 11.230469 4.5175781 11.230469 C 4.2775781 11.230469 4.0593281 11.215547 3.8613281 11.185547 C 3.6633281 11.155547 3.4860781 11.120125 3.3300781 11.078125 C 3.1740781 11.030125 3.0415938 10.981594 2.9335938 10.933594 C 2.8255938 10.885594 2.7416406 10.844594 2.6816406 10.808594 L 2.8808594 10.277344 C 2.9408594 10.313344 3.0210469 10.354344 3.1230469 10.402344 C 3.2250469 10.450344 3.3444219 10.498875 3.4824219 10.546875 C 3.6204219 10.588875 3.7771719 10.624297 3.9511719 10.654297 C 4.1251719 10.684297 4.3173438 10.699219 4.5273438 10.699219 C 5.0133438 10.699219 5.3901562 10.613453 5.6601562 10.439453 C 5.9301563 10.259453 6.0664062 9.970219 6.0664062 9.5742188 C 6.0664062 9.3462187 6.0216406 9.1578125 5.9316406 9.0078125 C 5.8476406 8.8518125 5.7338437 8.7230938 5.5898438 8.6210938 C 5.4458437 8.5130937 5.27975 8.4235625 5.09375 8.3515625 C 4.90775 8.2735625 4.7137656 8.1914219 4.5097656 8.1074219 C 4.2517656 8.0054219 4.0204062 7.9009687 3.8164062 7.7929688 C 3.6124063 7.6849688 3.4389219 7.5655937 3.2949219 7.4335938 C 3.1509219 7.2955937 3.0389375 7.1388438 2.9609375 6.9648438 C 2.8889375 6.7908437 2.8535156 6.5875156 2.8535156 6.3535156 C 2.8535156 5.8195156 3.0307656 5.4146719 3.3847656 5.1386719 C 3.7387656 4.8626719 4.229375 4.7246094 4.859375 4.7246094 z M 7.109375 6.4433594 L 7.7304688 6.4433594 C 7.8024688 6.7613594 7.8882344 7.10275 7.9902344 7.46875 C 8.0982344 7.82875 8.2120312 8.1888281 8.3320312 8.5488281 C 8.4580312 8.9028281 8.5887031 9.2479844 8.7207031 9.5839844 C 8.8527031 9.9139846 8.9814219 10.208797 9.1074219 10.466797 C 9.2334219 10.208797 9.3621406 9.9139846 9.4941406 9.5839844 C 9.6261406 9.2479844 9.7510938 8.9028281 9.8710938 8.5488281 C 9.9970934 8.1888281 10.110891 7.82875 10.212891 7.46875 C 10.320891 7.10275 10.412375 6.7613594 10.484375 6.4433594 L 11.068359 6.4433594 C 10.960359 6.8693594 10.840984 7.289125 10.708984 7.703125 C 10.576984 8.117125 10.435156 8.5219688 10.285156 8.9179688 C 10.141156 9.3139687 9.9881715 9.6945467 9.8261719 10.060547 C 9.6701719 10.426547 9.5171875 10.771703 9.3671875 11.095703 L 8.8105469 11.095703 C 8.6545469 10.771703 8.4977969 10.426547 8.3417969 10.060547 C 8.1857969 9.6945467 8.0328125 9.3139687 7.8828125 8.9179688 C 7.7388125 8.5219688 7.60075 8.117125 7.46875 7.703125 C 7.33675 7.289125 7.217375 6.8693594 7.109375 6.4433594 z M 13.048828 8.8417969 L 13.318359 8.8417969 L 13.318359 12.896484 L 12.9375 12.896484 L 12.9375 9.421875 C 12.8946 9.468675 12.837778 9.5157063 12.767578 9.5664062 C 12.701278 9.6171062 12.624862 9.66805 12.539062 9.71875 C 12.453262 9.76555 12.365084 9.812575 12.271484 9.859375 C 12.177884 9.902275 12.083834 9.9375437 11.990234 9.9648438 L 11.878906 9.671875 C 12.112906 9.5899751 12.320606 9.4880812 12.503906 9.3632812 C 12.687206 9.2345813 12.869428 9.0601969 13.048828 8.8417969 z "
     id="path4" />
</svg>

<svg xmlns="http://www.w3.org/2000/svg" viewBox="0 0 16 16">
 <path d="m 1.6 0 c -0.886 0 -1.6 0.713 -1.6 1.6 l 0 12.801 c 0 0.886 0.713 1.6 1.6 1.6 l 12.801 0 c 0.886 0 1.6 -0.713 1.6 -1.6 l 0 -12.801 c 0 -0.886 -0.713 -1.6 -1.6 -1.6 l -12.801 0 z m 3.26 4.725 c 0.168 0 0.334 0.011 0.496 0.035 c 0.162 0.024 0.311 0.058 0.449 0.1 c 0.144 0.036 0.273 0.077 0.387 0.125 c 0.12 0.048 0.219 0.1 0.297 0.154 l -0.215 0.512 c -0.174 -0.12 -0.387 -0.215 -0.639 -0.287 c -0.246 -0.072 -0.515 -0.107 -0.803 -0.107 c -0.198 0 -0.381 0.02 -0.549 0.063 c -0.162 0.036 -0.302 0.099 -0.422 0.189 c -0.12 0.084 -0.217 0.19 -0.289 0.322 c -0.066 0.132 -0.098 0.293 -0.098 0.479 c 0 0.192 0.035 0.354 0.107 0.486 c 0.072 0.132 0.171 0.246 0.297 0.342 c 0.132 0.096 0.285 0.182 0.459 0.26 c 0.174 0.078 0.362 0.16 0.566 0.244 c 0.246 0.102 0.477 0.203 0.693 0.305 c 0.222 0.102 0.414 0.223 0.576 0.361 c 0.162 0.138 0.291 0.306 0.387 0.504 c 0.096 0.198 0.145 0.441 0.145 0.729 c 0 0.564 -0.198 0.988 -0.594 1.27 c -0.39 0.282 -0.922 0.422 -1.594 0.422 c -0.24 0 -0.458 -0.015 -0.656 -0.045 c -0.198 -0.03 -0.375 -0.065 -0.531 -0.107 c -0.156 -0.048 -0.288 -0.097 -0.396 -0.145 c -0.108 -0.048 -0.192 -0.089 -0.252 -0.125 l 0.199 -0.531 c 0.06 0.036 0.14 0.077 0.242 0.125 c 0.102 0.048 0.221 0.097 0.359 0.145 c 0.138 0.042 0.295 0.077 0.469 0.107 c 0.174 0.03 0.366 0.045 0.576 0.045 c 0.486 0 0.863 -0.086 1.133 -0.26 c 0.27 -0.18 0.406 -0.469 0.406 -0.865 c 0 -0.228 -0.045 -0.416 -0.135 -0.566 c -0.084 -0.156 -0.198 -0.285 -0.342 -0.387 c -0.144 -0.108 -0.31 -0.198 -0.496 -0.27 c -0.186 -0.078 -0.38 -0.16 -0.584 -0.244 c -0.258 -0.102 -0.489 -0.206 -0.693 -0.314 c -0.204 -0.108 -0.377 -0.227 -0.521 -0.359 c -0.144 -0.138 -0.256 -0.295 -0.334 -0.469 c -0.072 -0.174 -0.107 -0.377 -0.107 -0.611 c 0 -0.534 0.177 -0.939 0.531 -1.215 c 0.354 -0.276 0.845 -0.414 1.475 -0.414 z m 2.25 1.719 l 0.621 0 c 0.072 0.318 0.158 0.659 0.26 1.025 c 0.108 0.36 0.222 0.72 0.342 1.08 c 0.126 0.354 0.257 0.699 0.389 1.035 c 0.132 0.33 0.261 0.625 0.387 0.883 c 0.126 -0.258 0.255 -0.553 0.387 -0.883 c 0.132 -0.336 0.257 -0.681 0.377 -1.035 c 0.126 -0.36 0.24 -0.72 0.342 -1.08 c 0.108 -0.366 0.199 -0.707 0.271 -1.025 l 0.584 0 c -0.108 0.426 -0.227 0.846 -0.359 1.26 c -0.132 0.414 -0.274 0.819 -0.424 1.215 c -0.144 0.396 -0.297 0.777 -0.459 1.143 c -0.156 0.366 -0.309 0.711 -0.459 1.035 l -0.557 0 c -0.156 -0.324 -0.313 -0.669 -0.469 -1.035 c -0.156 -0.366 -0.309 -0.747 -0.459 -1.143 c -0.144 -0.396 -0.282 -0.801 -0.414 -1.215 c -0.132 -0.414 -0.251 -0.834 -0.359 -1.26 z m 5.939 2.398 l 0.27 0 l 0 4.055 l -0.381 0 l 0 -3.475 c -0.043 0.047 -0.1 0.094 -0.17 0.145 c -0.066 0.051 -0.143 0.102 -0.229 0.152 c -0.086 0.047 -0.174 0.094 -0.268 0.141 c -0.094 0.043 -0.188 0.078 -0.281 0.105 l -0.111 -0.293 c 0.234 -0.082 0.442 -0.184 0.625 -0.309 c 0.183 -0.129 0.366 -0.303 0.545 -0.521 z" style="fill:#ececec;fill-opacity:1"/>
</svg>
